lg/mongodb-icon.svg

<svg viewBox="0 0 256 549" version="1.1" xmlns="http://www.w3.org/2000/svg" preserveAspectRatio="xMidYMid" height="1em" width="1em">
  <g>
    <path d="M175.621976,61.1079707 C152.611447,33.8066743 132.796647,6.0788184 128.748652,0.319937648 C128.322413,-0.106645883 127.683054,-0.106645883 127.257028,0.319937648 C123.20882,6.0788184 103.394233,33.8066743 80.383491,61.1079707 C-117.123869,313.004377 111.490649,482.998814 111.490649,482.998814 L113.408086,484.278812 C115.112404,510.512377 119.373732,548.265926 119.373732,548.265926 L127.896173,548.265926 L136.418615,548.265926 C136.418615,548.265926 140.679943,510.72571 142.384474,484.278812 L144.301911,482.785481 C144.514818,482.998814 373.130189,313.004377 175.621976,61.1079707 Z M127.896173,479.158819 C127.896173,479.158819 117.669414,470.414298 114.899498,465.936437 L114.899498,465.507638 L127.257028,191.215955 C127.257028,190.362623 128.535533,190.362623 128.535533,191.215955 L140.892849,465.507638 L140.892849,465.936437 C138.123146,470.414298 127.896173,479.158819 127.896173,479.158819 Z" fill="#01EC64"/>
  </g>
</svg>

<svg viewBox="0 0 256 549" xmlns="http://www.w3.org/2000/svg" preserveAspectRatio="xMidYMid" height="1em" width="1em">
  <path d="M175.622 61.108C152.612 33.807 132.797 6.078 128.749.32a1.03 1.03 0 0 0-1.492 0c-4.048 5.759-23.863 33.487-46.874 60.788-197.507 251.896 31.108 421.89 31.108 421.89l1.917 1.28c1.704 26.234 5.966 63.988 5.966 63.988h17.045s4.26-37.54 5.965-63.987l1.918-1.494c.213.214 228.828-169.78 31.32-421.677Zm-47.726 418.05s-10.227-8.744-12.997-13.222v-.428l12.358-274.292c0-.853 1.279-.853 1.279 0l12.357 274.292v.428c-2.77 4.478-12.997 13.223-12.997 13.223Z" fill="#01EC64"/>
</svg>
